svg/u1f502.svg

<svg viewBox="0 0 128 128" xmlns="http://www.w3.org/2000/svg">
  <g>
    <path d="M116,4H12c-4.42,0-8,3.58-8,8v104c0,4.42,3.58,8,8,8h104c4.42,0,8-3.58,8-8V12 C124,7.58,120.42,4,116,4z" fill="#F77E00"/>
    <path d="M109.7,4H11.5C7.37,4.03,4.03,7.37,4,11.5v97.9c-0.01,4.14,3.34,7.49,7.48,7.5c0.01,0,0.01,0,0.02,0 h98.1c4.14,0.01,7.49-3.34,7.5-7.48c0-0.01,0-0.01,0-0.02V11.5c0.09-4.05-3.13-7.41-7.18-7.5C109.85,4,109.77,4,109.7,4z" fill="#FF9800"/>
    <path d="M39.7,12.9c0-2.3-1.6-3-10.8-2.7c-7.7,0.3-11.5,1.2-13.8,4 s-2.9,8.5-3,15.3c0,4.8,0,9.3,2.5,9.3c3.4,0,3.4-7.9,6.2-12.3C26.2,17.8,39.7,15.9,39.7,12.9z" opacity="0.75" fill="#FFBD52" enable-background="new "/>
    <path d="M108.8,54.7L108.8,54.7L94,68c-0.4,10.5-7.2,12-12,12H68.8c1.6,5.21,1.6,10.79,0,16H82 c15.5,0,28-14.3,28-32C110.01,60.86,109.6,57.73,108.8,54.7z" fill="#FAFAFA"/>
    <path d="M108.6,37l-24-24c-1.68-1.44-4.2-1.24-5.64,0.44C78.35,14.15,78.01,15.06,78,16v14c0,1.1-0.9,2-2,2 H42c-15.5,0-28,14.3-28,32c-0.01,3.14,0.4,6.27,1.2,9.3l0,0l0.1-0.1c3.03-6.02,8.2-10.7,14.5-13.1L30,60c0.5-10.5,7.2-12,12-12h34 c1.1,0,2,0.9,2,2v14c0.02,2.21,1.83,3.98,4.04,3.96c0.94-0.01,1.85-0.35,2.56-0.96l24-24c1.66-1.35,1.91-3.79,0.56-5.44 C108.99,37.35,108.8,37.17,108.6,37z" fill="#FAFAFA"/>
    <path d="M40.7,63.4c-13.03,0-23.6,10.57-23.6,23.6s10.57,23.6,23.6,23.6S64.3,100.03,64.3,87l0,0 C64.28,73.98,53.72,63.42,40.7,63.4z M46,105.6c0,0.55-0.45,1-1,1h-6.7c-0.55,0-1-0.45-1-1V80.5c-0.03-0.55-0.5-0.97-1.05-0.95 c-0.08,0-0.17,0.02-0.25,0.05l-5.9,1.7c-0.53,0.17-1.09-0.13-1.25-0.65c-0.03-0.08-0.04-0.16-0.05-0.25v-4.5 c0.02-0.42,0.3-0.78,0.7-0.9l15.1-5c0.53-0.17,1.09,0.13,1.25,0.65c0.03,0.08,0.04,0.16,0.05,0.25L46,105.6z" fill="#FAFAFA"/>
  </g>
</svg>

<svg viewBox="0 0 128 128" xmlns="http://www.w3.org/2000/svg">
  <defs/>
  <path d="M116,4 L12,4 C7.58,4 4,7.58 4,12 L4,116 C4,120.42 7.58,124 12,124 L116,124 C120.42,124 124,120.42 124,116 L124,12 C124,7.58 120.42,4 116,4 Z" fill="#F77E00"/>
  <path d="M109.7,4 L11.5,4 C7.37,4.03 4.03,7.37 4,11.5 L4,109.4 C3.99,113.54 7.34,116.89 11.48,116.9 C11.49,116.9 11.49,116.9 11.5,116.9 L109.6,116.9 C113.74,116.91 117.09,113.56 117.1,109.42 C117.1,109.41 117.1,109.41 117.1,109.4 L117.1,11.5 C117.19,7.45 113.97,4.09 109.92,4 C109.85,4 109.77,4 109.7,4 Z" fill="#FF9800"/>
  <path d="M39.7,12.9 C39.7,10.6 38.1,9.9 28.9,10.2 C21.2,10.5 17.4,11.4 15.1,14.2 C12.8,17 12.2,22.7 12.1,29.5 C12.1,34.3 12.1,38.8 14.6,38.8 C18,38.8 18,30.9 20.8,26.5 C26.2,17.8 39.7,15.9 39.7,12.9 Z" fill="#FFBD52" opacity="0.75"/>
  <path d="M108.8,54.7 L108.8,54.7 L94,68 C93.6,78.5 86.8,80 82,80 L68.8,80 C70.4,85.21 70.4,90.79 68.8,96 L82,96 C97.5,96 110,81.7 110,64 C110.01,60.86 109.6,57.73 108.8,54.7 Z" fill="#FAFAFA"/>
  <path d="M108.6,37 L84.6,13 C82.92,11.56 80.4,11.76 78.96,13.44 C78.35,14.15 78.01,15.06 78,16 L78,30 C78,31.1 77.1,32 76,32 L42,32 C26.5,32 14,46.3 14,64 C13.99,67.14 14.4,70.27 15.2,73.3 L15.2,73.3 L15.3,73.2 C18.33,67.18 23.5,62.5 29.8,60.1 L30,60 C30.5,49.5 37.2,48 42,48 L76,48 C77.1,48 78,48.9 78,50 L78,64 C78.02,66.21 79.83,67.98 82.04,67.96 C82.98,67.95 83.89,67.61 84.6,67 L108.6,43 C110.26,41.65 110.51,39.21 109.16,37.56 C108.99,37.35 108.8,37.17 108.6,37 Z" fill="#FAFAFA"/>
  <path d="M40.7,63.4 C27.67,63.4 17.1,73.97 17.1,87 C17.1,100.03 27.67,110.6 40.7,110.6 C53.73,110.6 64.3,100.03 64.3,87 L64.3,87 C64.28,73.98 53.72,63.42 40.7,63.4 Z M46,105.6 C46,106.15 45.55,106.6 45,106.6 L38.3,106.6 C37.75,106.6 37.3,106.15 37.3,105.6 L37.3,80.5 C37.27,79.95 36.8,79.53 36.25,79.55 C36.17,79.55 36.08,79.57 36,79.6 L30.1,81.3 C29.57,81.47 29.01,81.17 28.85,80.65 C28.82,80.57 28.81,80.49 28.8,80.4 L28.8,75.9 C28.82,75.48 29.1,75.12 29.5,75 L44.6,70 C45.13,69.83 45.69,70.13 45.85,70.65 C45.88,70.73 45.89,70.81 45.9,70.9 L46,105.6 Z" fill="#FAFAFA"/>
</svg>
